X:1
T:Avignon, 88.86
T:Avignon, 88.86
T:14th Century Melody
T:Public Domain Courtesy of the Cyber Hymnal™
C:14th Century Melody
Z:Public Domain
Z:Courtesy of the Cyber Hymnal™
%%score ( 1 2 ) ( 3 4 )
L:1/8
Q:1/4=106
M:4/4
K:G
V:1 treble 
V:2 treble 
V:3 bass 
V:4 bass 
V:1
 [DG]2 [GB]2 | [Ad]2 [GB]2 [Gc]2 [Ge]2 | [Fd]2 [FA]2 [DB]2 [Dd]2 | [Ec]2 [DA]2 [B,G]2 [^CE]2 | %4
 [DF]2 D2 [DB]2 [Ec]2 | [Fd]2 [Ge]2 [Gd]2 [FA]2 | [GB]2 [DG]2 [Ac]2 [GB]2 | %7
 [FA]2 [EG]2 ([EG]2 [DF]2) | [DG]4 |] %9
V:2
 x4 | x8 | x8 | x8 | x2 D2 x4 | x8 | x8 | x8 | x4 |] %9
V:3
 [G,B,]2 [G,D]2 | [F,D]2 [G,D]2 [E,C]2 [C,C]2 | [D,A,]2 [D,D]2 G,2 [B,,G,]2 | %3
 [C,G,]2 [D,F,]2 [E,G,]2 [A,,A,]2 | [D,A,]2 [D,F,]2 G,2 [E,G,]2 | [D,A,]2 [C,C]2 [B,,D]2 [D,D]2 | %6
 [G,D]2 [G,B,]2 [A,,E]2 D2 | [D,C]2 [E,B,]2 (A,B, [D,C]2) | [G,,B,]4 |] %9
V:4
 x4 | x8 | x4 G,2 x2 | x8 | x4 G,2 x2 | x8 | x6 (B,,C,) | x4 C,2 x2 | x4 |] %9

